X:1
T:Caerdroea
C:Traditional
M:3/4
L:1/4
Q:1/4=132
K:G
d | G B/2c/2B/2A/2 | B d G | A A/2B/2A/2G/2 | F2 d | G B/2c/2B/2A/2 | B d G | A3/2G/2 F | G3 |]
